SF_Symbols/fanblades.svg

<?xml version="1.0" encoding="UTF-8"?>
<svg xmlns="http://www.w3.org/2000/svg" xmlns:xlink="http://www.w3.org/1999/xlink" width="24" height="24" viewBox="0 0 24 24" version="1.1">
<g id="surface1">
<path style=" stroke:none;fill-rule:nonzero;fill:rgb(100%,100%,100%);fill-opacity:1;" d="M 11.988281 16.425781 C 12.71875 16.425781 13.382812 16.25 13.980469 15.894531 C 14.578125 15.542969 15.050781 15.066406 15.40625 14.46875 C 15.765625 13.871094 15.949219 13.207031 15.949219 12.480469 C 15.949219 11.75 15.765625 11.085938 15.40625 10.488281 C 15.050781 9.890625 14.578125 9.417969 13.980469 9.0625 C 13.382812 8.703125 12.71875 8.519531 11.988281 8.519531 C 11.261719 8.519531 10.597656 8.703125 10 9.0625 C 9.402344 9.417969 8.925781 9.890625 8.574219 10.488281 C 8.21875 11.085938 8.042969 11.75 8.042969 12.480469 C 8.042969 13.207031 8.21875 13.871094 8.574219 14.46875 C 8.925781 15.066406 9.402344 15.542969 10 15.894531 C 10.597656 16.25 11.261719 16.425781 11.988281 16.425781 Z M 11.988281 14.824219 C 11.558594 14.824219 11.167969 14.71875 10.8125 14.511719 C 10.457031 14.296875 10.171875 14.011719 9.957031 13.65625 C 9.75 13.300781 9.644531 12.910156 9.644531 12.480469 C 9.644531 12.046875 9.75 11.65625 9.957031 11.300781 C 10.171875 10.941406 10.457031 10.65625 10.8125 10.449219 C 11.167969 10.234375 11.558594 10.125 11.988281 10.125 C 12.421875 10.125 12.8125 10.234375 13.167969 10.449219 C 13.527344 10.65625 13.8125 10.941406 14.019531 11.300781 C 14.234375 11.65625 14.34375 12.046875 14.34375 12.480469 C 14.34375 12.910156 14.234375 13.300781 14.019531 13.65625 C 13.8125 14.011719 13.527344 14.296875 13.167969 14.511719 C 12.8125 14.71875 12.421875 14.824219 11.988281 14.824219 Z M 11.988281 13.957031 C 12.40625 13.957031 12.757812 13.816406 13.042969 13.53125 C 13.332031 13.238281 13.480469 12.890625 13.480469 12.480469 C 13.480469 12.070312 13.332031 11.71875 13.042969 11.425781 C 12.75 11.128906 12.398438 10.980469 11.988281 10.980469 C 11.574219 10.980469 11.21875 11.125 10.925781 11.417969 C 10.640625 11.707031 10.5 12.0625 10.5 12.480469 C 10.5 12.894531 10.640625 13.246094 10.925781 13.53125 C 11.21875 13.816406 11.574219 13.957031 11.988281 13.957031 Z M 11.238281 9.28125 L 11.238281 4.25 C 11.238281 3.292969 10.988281 2.554688 10.488281 2.042969 C 9.996094 1.527344 9.285156 1.269531 8.355469 1.269531 C 7.519531 1.269531 6.699219 1.441406 5.886719 1.78125 C 5.078125 2.121094 4.351562 2.578125 3.699219 3.15625 C 3.046875 3.726562 2.519531 4.363281 2.125 5.074219 C 1.734375 5.78125 1.542969 6.503906 1.542969 7.238281 C 1.542969 8.136719 1.808594 8.917969 2.34375 9.582031 C 2.886719 10.242188 3.664062 10.835938 4.675781 11.363281 C 5.699219 11.886719 6.929688 12.382812 8.375 12.855469 L 9.042969 11.34375 C 7.769531 10.921875 6.695312 10.515625 5.8125 10.125 C 4.9375 9.730469 4.269531 9.304688 3.8125 8.855469 C 3.359375 8.394531 3.136719 7.859375 3.136719 7.238281 C 3.136719 6.71875 3.289062 6.203125 3.59375 5.6875 C 3.90625 5.167969 4.316406 4.695312 4.824219 4.269531 C 5.328125 3.847656 5.890625 3.507812 6.511719 3.25 C 7.128906 2.992188 7.742188 2.863281 8.355469 2.863281 C 8.839844 2.863281 9.175781 2.964844 9.363281 3.167969 C 9.550781 3.367188 9.644531 3.730469 9.644531 4.25 L 9.644531 9.738281 Z M 15.1875 11.71875 L 20.230469 11.71875 C 21.1875 11.71875 21.921875 11.472656 22.425781 10.980469 C 22.941406 10.484375 23.199219 9.773438 23.199219 8.84375 C 23.199219 8.011719 23.027344 7.191406 22.6875 6.386719 C 22.347656 5.574219 21.890625 4.839844 21.3125 4.1875 C 20.742188 3.527344 20.105469 3.003906 19.394531 2.613281 C 18.6875 2.21875 17.964844 2.019531 17.230469 2.019531 C 16.332031 2.019531 15.550781 2.292969 14.886719 2.832031 C 14.226562 3.367188 13.632812 4.144531 13.105469 5.167969 C 12.582031 6.1875 12.085938 7.421875 11.613281 8.875 L 13.125 9.542969 C 13.546875 8.265625 13.953125 7.183594 14.34375 6.300781 C 14.738281 5.421875 15.164062 4.753906 15.613281 4.300781 C 16.074219 3.84375 16.609375 3.613281 17.230469 3.613281 C 17.75 3.613281 18.265625 3.769531 18.78125 4.082031 C 19.300781 4.390625 19.773438 4.796875 20.199219 5.3125 C 20.621094 5.820312 20.960938 6.382812 21.21875 7 C 21.476562 7.617188 21.605469 8.234375 21.605469 8.84375 C 21.605469 9.328125 21.503906 9.667969 21.300781 9.855469 C 21.101562 10.035156 20.742188 10.125 20.230469 10.125 L 14.730469 10.125 Z M 12.75 15.675781 L 12.75 20.71875 C 12.75 21.675781 12.996094 22.410156 13.488281 22.917969 C 13.984375 23.429688 14.695312 23.6875 15.625 23.6875 C 16.457031 23.6875 17.277344 23.515625 18.082031 23.175781 C 18.894531 22.835938 19.628906 22.378906 20.28125 21.800781 C 20.941406 21.234375 21.464844 20.597656 21.855469 19.894531 C 22.25 19.1875 22.449219 18.460938 22.449219 17.71875 C 22.449219 16.824219 22.175781 16.046875 21.636719 15.386719 C 21.101562 14.71875 20.324219 14.125 19.300781 13.605469 C 18.28125 13.078125 17.046875 12.578125 15.605469 12.105469 L 14.9375 13.613281 C 16.207031 14.039062 17.285156 14.449219 18.167969 14.84375 C 19.046875 15.234375 19.714844 15.65625 20.167969 16.113281 C 20.625 16.566406 20.855469 17.101562 20.855469 17.71875 C 20.855469 18.238281 20.699219 18.761719 20.386719 19.28125 C 20.078125 19.796875 19.671875 20.265625 19.15625 20.6875 C 18.648438 21.109375 18.085938 21.453125 17.46875 21.707031 C 16.859375 21.964844 16.242188 22.089844 15.625 22.082031 C 15.140625 22.082031 14.800781 21.984375 14.613281 21.78125 C 14.433594 21.585938 14.34375 21.234375 14.34375 20.71875 L 14.34375 15.21875 Z M 8.792969 13.230469 L 3.75 13.230469 C 2.796875 13.230469 2.066406 13.480469 1.550781 13.980469 C 1.046875 14.472656 0.792969 15.183594 0.792969 16.113281 C 0.792969 16.949219 0.960938 17.769531 1.300781 18.582031 C 1.640625 19.390625 2.097656 20.117188 2.667969 20.769531 C 3.234375 21.429688 3.875 21.953125 4.582031 22.34375 C 5.292969 22.738281 6.015625 22.9375 6.75 22.9375 C 7.644531 22.9375 8.421875 22.667969 9.082031 22.125 C 9.75 21.589844 10.34375 20.8125 10.863281 19.792969 C 11.390625 18.769531 11.890625 17.539062 12.363281 16.09375 L 10.855469 15.425781 C 10.429688 16.699219 10.019531 17.773438 9.625 18.65625 C 9.234375 19.53125 8.8125 20.195312 8.355469 20.644531 C 7.902344 21.105469 7.367188 21.332031 6.75 21.332031 C 6.230469 21.332031 5.710938 21.179688 5.199219 20.875 C 4.683594 20.570312 4.210938 20.164062 3.78125 19.65625 C 3.359375 19.140625 3.015625 18.578125 2.761719 17.96875 C 2.511719 17.351562 2.386719 16.734375 2.386719 16.113281 C 2.386719 15.628906 2.484375 15.292969 2.675781 15.105469 C 2.878906 14.917969 3.234375 14.824219 3.75 14.824219 L 9.25 14.824219 Z M 8.792969 13.230469 "/>
</g>
</svg>

<svg xmlns="http://www.w3.org/2000/svg" width="24" height="24"><path style="stroke:none;fill-rule:nonzero;fill:#fff;fill-opacity:1" d="M11.988 16.426c.73 0 1.395-.176 1.992-.531a3.96 3.96 0 0 0 1.426-1.426c.36-.598.543-1.262.543-1.989 0-.73-.183-1.394-.543-1.992a4.021 4.021 0 0 0-1.426-1.425 3.812 3.812 0 0 0-1.992-.543c-.726 0-1.39.183-1.988.543a3.96 3.96 0 0 0-1.426 1.425 3.837 3.837 0 0 0-.531 1.992c0 .727.176 1.391.531 1.989A3.96 3.96 0 0 0 10 15.895c.602.355 1.29.539 1.988.53Zm0-1.602c-.43 0-.82-.105-1.175-.312a2.49 2.49 0 0 1-.856-.856 2.295 2.295 0 0 1-.312-1.176c0-.433.105-.824.312-1.18.215-.359.5-.644.855-.85a2.232 2.232 0 0 1 1.176-.325c.434 0 .825.11 1.18.324.36.207.645.492.852.852.214.355.324.746.324 1.18 0 .43-.11.82-.324 1.175-.207.356-.493.64-.852.856a2.32 2.32 0 0 1-1.18.312Zm0-.867c.418 0 .77-.14 1.055-.426.289-.293.437-.64.437-1.05 0-.41-.148-.762-.437-1.055a1.431 1.431 0 0 0-1.055-.446c-.414 0-.77.145-1.062.438-.285.289-.426.645-.426 1.062 0 .415.14.766.426 1.051.293.285.648.426 1.062.426Zm-.75-4.676V4.25c0-.957-.25-1.695-.75-2.207-.492-.516-1.203-.773-2.133-.773a6.321 6.321 0 0 0-2.468.511c-.801.336-1.54.801-2.188 1.375a7.166 7.166 0 0 0-1.574 1.918c-.39.707-.582 1.43-.582 2.164 0 .899.266 1.68.8 2.344.544.66 1.321 1.254 2.333 1.781 1.023.524 2.254 1.02 3.699 1.492l.668-1.511a37.008 37.008 0 0 1-3.23-1.219c-.875-.395-1.543-.82-2-1.27-.454-.46-.676-.996-.676-1.617 0-.52.152-1.035.457-1.55.312-.52.722-.993 1.23-1.418a6.528 6.528 0 0 1 1.688-1.02 4.755 4.755 0 0 1 1.843-.387c.485 0 .82.102 1.008.305.188.2.282.562.282 1.082v5.488Zm3.95 2.438h5.042c.957 0 1.692-.246 2.196-.739.515-.496.773-1.207.773-2.136a6.264 6.264 0 0 0-.512-2.457 7.802 7.802 0 0 0-1.375-2.2 6.907 6.907 0 0 0-1.917-1.574c-.707-.394-1.43-.593-2.165-.593-.898 0-1.68.273-2.343.812-.66.535-1.254 1.313-1.782 2.336-.523 1.02-1.02 2.254-1.492 3.707l1.512.668c.422-1.277.828-2.36 1.219-3.242.394-.88.82-1.547 1.27-2 .46-.457.995-.688 1.616-.688.52 0 1.036.157 1.551.469.52.309.992.715 1.418 1.23.422.508.762 1.07 1.02 1.688.258.617.386 1.234.386 1.844 0 .484-.101.824-.304 1.011-.2.18-.559.27-1.07.27h-5.5Zm-2.438 3.957v5.043c0 .957.246 1.691.738 2.199.496.512 1.207.77 2.137.77a6.264 6.264 0 0 0 2.457-.512 7.802 7.802 0 0 0 2.2-1.375 6.983 6.983 0 0 0 1.573-1.906c.395-.707.594-1.434.594-2.176 0-.895-.273-1.672-.812-2.332-.535-.668-1.313-1.262-2.336-1.782-1.02-.527-2.254-1.027-3.696-1.5l-.668 1.508c1.27.426 2.348.836 3.231 1.23.879.391 1.547.813 2 1.27.457.453.687.989.687 1.606 0 .52-.156 1.043-.468 1.562a5.427 5.427 0 0 1-1.23 1.407 6.463 6.463 0 0 1-1.688 1.019 4.54 4.54 0 0 1-1.844.375c-.484 0-.824-.098-1.012-.3-.18-.196-.27-.548-.27-1.063v-5.5ZM8.793 13.23H3.75c-.953 0-1.684.25-2.2.75-.503.493-.757 1.204-.757 2.133 0 .836.168 1.657.508 2.469.34.809.797 1.535 1.367 2.188a6.946 6.946 0 0 0 1.914 1.574c.711.394 1.434.593 2.168.593.895 0 1.672-.269 2.332-.812.668-.535 1.262-1.313 1.781-2.332.528-1.023 1.028-2.254 1.5-3.7l-1.508-.667a36.165 36.165 0 0 1-1.23 3.23c-.39.875-.813 1.54-1.27 1.989-.453.46-.988.687-1.605.687-.52 0-1.04-.152-1.55-.457a5.574 5.574 0 0 1-1.419-1.219 6.706 6.706 0 0 1-1.02-1.687 4.889 4.889 0 0 1-.374-1.856c0-.484.097-.82.289-1.008.203-.187.558-.28 1.074-.28h5.5Zm0 0"/></svg>
